X:1
T:The Holly and the Ivy
C:Traditional
M:3/4
L:1/4
Q:1/4=92
K:D
C A B | c B A | E A B | A3 | A2 e | e c A | B2 c | B3 | B2 e | e2 c | c B c | d d d | d2 d | c B A | B2 G | A3 |]
w: The hol-ly | and the i- | vy, | _ | when they | are both full | grown, | _ | of all | the trees | that are in | the wood, | the hol- | ly bears the | crown. | _
